;Generated by Cura LulzBot Edition GCodeWriter Version: 3.2.32
;FLAVOR:Marlin
;TIME:1960
;Filament used: 0.658797m
;Layer height: 0.25
;Generated with Cura_SteamEngine 3.2.32
M82 ;absolute extrusion mode
;This G-Code has been generated specifically for the LulzBot TAZ 6 with standard extruder
M75 ; start GLCD timer
G26 ; clear potential 'probe fail' condition
G21 ; set units to Millimetres
M107 ; disable fans
M420 S0 ; disable previous leveling matrix
G90 ; absolute positioning
M82 ; set extruder to absolute mode
G92 E0 ; set extruder position to 0
M140 S60 ; start bed heating up
M109 R160 ; soften filament before homing Z
G28 ; Home all axis
G1 E-30 F100 ; retract filament
M109 R160 ; wait for extruder to reach wiping temp
G1 X-15 Y100 F3000 ; move above wiper pad
G1 Z1 ; push nozzle into wiper
G1 X-17 Y95 F1000 ; slow wipe
G1 X-17 Y90 F1000 ; slow wipe
G1 X-17 Y85 F1000 ; slow wipe
G1 X-15 Y90 F1000 ; slow wipe
G1 X-17 Y80 F1000 ; slow wipe
G1 X-15 Y95 F1000 ; slow wipe
G1 X-17 Y75 F2000 ; fast wipe
G1 X-15 Y65 F2000 ; fast wipe
G1 X-17 Y70 F2000 ; fast wipe
G1 X-15 Y60 F2000 ; fast wipe
G1 X-17 Y55 F2000 ; fast wipe
G1 X-15 Y50 F2000 ; fast wipe
G1 X-17 Y40 F2000 ; fast wipe
G1 X-15 Y45 F2000 ; fast wipe
G1 X-17 Y35 F2000 ; fast wipe
G1 X-15 Y40 F2000 ; fast wipe
G1 X-17 Y70 F2000 ; fast wipe
G1 X-15 Y30 Z2 F2000 ; fast wipe
G1 X-17 Y35 F2000 ; fast wipe
G1 X-15 Y25 F2000 ; fast wipe
G1 X-17 Y30 F2000 ; fast wipe
G1 X-15 Y25 Z1.5 F1000 ; slow wipe
G1 X-17 Y23 F1000 ; slow wipe
G1 Z10 ; raise extruder
M109 R160 ; wait for extruder to reach probe temp
G1 X-9 Y-9 ; move above first probe point
M204 S100 ; set probing acceleration
G29 ; start auto-leveling sequence
M420 S1 ; activate bed level matrix
M425 Z			     ; use measured Z backlash for compensation
M425 Z F0		     ; turn off measured Z backlash compensation. (if activated in the quality settings, this command will automatically be ignored)
M204 S500 ; restore standard acceleration
G1 X0 Y0 Z15 F5000 ; move up off last probe point
G4 S1 ; pause
M400 ; wait for moves to finish
M117 Heating... ; progress indicator message on LCD
M109 R230 ; wait for extruder to reach printing temp
M190 S60 ; wait for bed to reach printing temp
G1 Z2 E0 F75 ; prime tiny bit of filament into the nozzle
M117 TAZ 6 Printing... ; progress indicator message on LCD

M221 S100
;LAYER_COUNT:80
;LAYER:0
M107
G0 F2625 X111.68 Y126.707 Z0.424
;TYPE:SKIRT
G1 F900 X112.125 Y126.388 E0.0182
G1 X112.612 Y126.138 E0.03639
G1 X113.13 Y125.961 E0.05458
G1 X113.668 Y125.862 E0.07276
G1 X114.079 Y125.839 E0.08644
G1 X165.921 Y125.84 E1.80925
G1 X166.467 Y125.88 E1.82744
G1 X167.001 Y125.999 E1.84562
G1 X167.512 Y126.194 E1.8638
G1 X167.99 Y126.462 E1.88201
G1 X168.423 Y126.797 E1.9002
G1 X168.803 Y127.191 E1.9184
G1 X169.122 Y127.636 E1.93659
G1 X169.372 Y128.123 E1.95478
G1 X169.549 Y128.641 E1.97297
G1 X169.648 Y129.179 E1.99115
G1 X169.671 Y129.59 E2.00483
G1 X169.671 Y150.411 E2.69676
G1 X169.631 Y150.957 E2.71495
G1 X169.512 Y151.491 E2.73313
G1 X169.317 Y152.002 E2.75131
G1 X169.049 Y152.48 E2.76952
G1 X168.714 Y152.913 E2.78771
G1 X168.32 Y153.293 E2.8059
G1 X167.875 Y153.612 E2.8241
G1 X167.388 Y153.862 E2.84229
G1 X166.87 Y154.039 E2.86048
G1 X166.332 Y154.138 E2.87866
G1 X165.921 Y154.161 E2.89234
G1 X114.079 Y154.161 E4.61515
G1 X113.533 Y154.121 E4.63334
G1 X112.999 Y154.002 E4.65153
G1 X112.488 Y153.807 E4.6697
G1 X112.01 Y153.539 E4.68791
G1 X111.577 Y153.204 E4.70611
G1 X111.197 Y152.81 E4.7243
G1 X110.878 Y152.365 E4.74249
G1 X110.628 Y151.878 E4.76068
G1 X110.451 Y151.36 E4.77888
G1 X110.352 Y150.822 E4.79706
G1 X110.329 Y150.411 E4.81073
G1 X110.329 Y129.589 E5.50269
G1 X110.369 Y129.043 E5.52088
G1 X110.488 Y128.509 E5.53907
G1 X110.683 Y127.998 E5.55724
G1 X110.951 Y127.52 E5.57545
G1 X111.286 Y127.087 E5.59365
G1 X111.68 Y126.707 E5.61184
G0 F2625 X112.166 Y126.961
G1 F900 X112.601 Y126.695 E5.62878
G1 X113.071 Y126.499 E5.6457
G1 X113.566 Y126.38 E5.66262
G1 X114.079 Y126.339 E5.67973
G1 X165.921 Y126.34 E7.40254
G1 X166.429 Y126.38 E7.41947
G1 X166.924 Y126.499 E7.43639
G1 X167.395 Y126.694 E7.45333
G1 X167.83 Y126.96 E7.47028
G1 X168.217 Y127.29 E7.48718
G1 X168.549 Y127.677 E7.50412
G1 X168.815 Y128.112 E7.52107
G1 X169.011 Y128.582 E7.53799
G1 X169.13 Y129.077 E7.55491
G1 X169.171 Y129.59 E7.57201
G1 X169.171 Y150.411 E8.26393
G1 X169.131 Y150.919 E8.28087
G1 X169.012 Y151.414 E8.29779
G1 X168.817 Y151.885 E8.31473
G1 X168.551 Y152.32 E8.33167
G1 X168.221 Y152.707 E8.34857
G1 X167.834 Y153.039 E8.36552
G1 X167.399 Y153.305 E8.38246
G1 X166.929 Y153.501 E8.39938
G1 X166.434 Y153.62 E8.4163
G1 X165.921 Y153.661 E8.43341
G1 X114.079 Y153.661 E10.15622
G1 X113.571 Y153.621 E10.17315
G1 X113.076 Y153.502 E10.19007
G1 X112.605 Y153.307 E10.20701
G1 X112.17 Y153.041 E10.22396
G1 X111.783 Y152.711 E10.24086
G1 X111.451 Y152.324 E10.2578
G1 X111.185 Y151.889 E10.27475
G1 X110.989 Y151.419 E10.29167
G1 X110.87 Y150.924 E10.30859
G1 X110.829 Y150.411 E10.32569
G1 X110.829 Y129.589 E11.01765
G1 X110.869 Y129.081 E11.03458
G1 X110.988 Y128.586 E11.0515
G1 X111.183 Y128.115 E11.06844
G1 X111.449 Y127.68 E11.08538
G1 X111.779 Y127.293 E11.10229
G1 X112.166 Y126.961 E11.11923
G1 F600 E10.11923
G0 F2625 X114.834 Y128.915
G0 X114.834 Y130.344
G0 X135.622 Y136.12
G0 X135.696 Y136.186
;TYPE:WALL-INNER
G1 F600 E11.11923
G1 F900 X135.474 Y136.454 E11.1308
G1 X135.267 Y136.734 E11.14237
G1 X135.079 Y137.027 E11.15394
G1 X134.909 Y137.327 E11.16539
G1 X134.757 Y137.638 E11.1769
G1 X134.623 Y137.96 E11.18849
G1 X134.51 Y138.29 E11.20008
G1 X134.416 Y138.624 E11.21161
G1 X134.345 Y138.961 E11.22306
G1 X134.292 Y139.302 E11.23452
G1 X134.261 Y139.648 E11.24607
G1 X134.25 Y140 E11.25777
G1 X134.261 Y140.352 E11.26948
G1 X134.292 Y140.698 E11.28102
G1 X134.345 Y141.039 E11.29249
G1 X134.416 Y141.376 E11.30393
G1 X134.51 Y141.71 E11.31546
G1 X134.623 Y142.04 E11.32706
G1 X134.757 Y142.362 E11.33865
G1 X134.909 Y142.673 E11.35015
G1 X135.079 Y142.973 E11.36161
G1 X135.267 Y143.266 E11.37318
G1 X135.474 Y143.546 E11.38475
G1 X135.696 Y143.814 E11.39631
G1 X135.935 Y144.066 E11.40786
G1 X136.187 Y144.303 E11.41935
G1 X136.454 Y144.526 E11.43091
G1 X136.734 Y144.733 E11.44248
G1 X137.025 Y144.92 E11.45398
G1 X137.328 Y145.091 E11.46554
G1 X137.64 Y145.244 E11.47709
G1 X137.961 Y145.377 E11.48864
G1 X138.289 Y145.49 E11.50016
G1 X138.624 Y145.583 E11.51172
G1 X138.963 Y145.656 E11.52324
G1 X139.306 Y145.709 E11.53478
G1 X139.652 Y145.74 E11.54632
G1 X140 Y145.75 E11.55789
G1 X140.348 Y145.74 E11.56946
G1 X140.694 Y145.709 E11.581
G1 X141.037 Y145.656 E11.59254
G1 X141.376 Y145.583 E11.60406
G1 X141.711 Y145.49 E11.61562
G1 X142.039 Y145.377 E11.62714
G1 X142.36 Y145.244 E11.63869
G1 X142.672 Y145.091 E11.65024
G1 X142.975 Y144.92 E11.6618
G1 X143.266 Y144.733 E11.6733
G1 X143.546 Y144.526 E11.68487
G1 X143.813 Y144.303 E11.69643
G1 X144.065 Y144.066 E11.70792
G1 X144.304 Y143.814 E11.71947
G1 X144.526 Y143.546 E11.73103
G1 X144.733 Y143.266 E11.7426
G1 X144.921 Y142.973 E11.75417
G1 X145.091 Y142.673 E11.76563
G1 X145.243 Y142.362 E11.77713
G1 X145.377 Y142.04 E11.78872
G1 X145.49 Y141.71 E11.80032
G1 X145.584 Y141.376 E11.81185
G1 X145.655 Y141.039 E11.82329
G1 X145.708 Y140.698 E11.83476
G1 X145.739 Y140.352 E11.8463
G1 X145.75 Y140 E11.85801
G1 X145.739 Y139.648 E11.86971
G1 X145.708 Y139.302 E11.88126
G1 X145.655 Y138.961 E11.89272
G1 X145.584 Y138.624 E11.90417
G1 X145.49 Y138.29 E11.9157
G1 X145.377 Y137.96 E11.92729
G1 X145.243 Y137.638 E11.93888
G1 X145.091 Y137.327 E11.95039
G1 X144.921 Y137.027 E11.96184
G1 X144.733 Y136.734 E11.97341
G1 X144.526 Y136.454 E11.98498
G1 X144.304 Y136.186 E11.99655
G1 X144.065 Y135.934 E12.00809
G1 X143.813 Y135.697 E12.01959
G1 X143.546 Y135.474 E12.03115
G1 X143.266 Y135.267 E12.04272
G1 X142.975 Y135.08 E12.05422
G1 X142.672 Y134.909 E12.06578
G1 X142.36 Y134.756 E12.07733
G1 X142.039 Y134.623 E12.08887
G1 X141.711 Y134.51 E12.1004
G1 X141.376 Y134.417 E12.11195
G1 X141.037 Y134.344 E12.12348
G1 X140.694 Y134.291 E12.13501
G1 X140.348 Y134.26 E12.14656
G1 X140 Y134.25 E12.15813
G1 X139.652 Y134.26 E12.1697
G1 X139.306 Y134.291 E12.18124
G1 X138.963 Y134.344 E12.19277
G1 X138.624 Y134.417 E12.2043
G1 X138.289 Y134.51 E12.21585
G1 X137.961 Y134.623 E12.22738
G1 X137.64 Y134.756 E12.23893
G1 X137.328 Y134.909 E12.25048
G1 X137.025 Y135.08 E12.26204
G1 X136.734 Y135.267 E12.27353
G1 X136.454 Y135.474 E12.2851
G1 X136.187 Y135.697 E12.29666
G1 X135.935 Y135.934 E12.30816
G1 X135.696 Y136.186 E12.3197
G0 F2625 X135.622 Y136.12
G0 X136.712 Y135.235
G0 X137.624 Y134.72
G0 X138.615 Y134.379
G0 X139.65 Y134.221
G0 X140.698 Y134.252
G0 X141.722 Y134.472
G0 X142.69 Y134.874
G0 X165.11 Y149.6
G0 X165.18 Y149.67
G1 F900 X114.82 Y149.67 E13.99327
G1 X114.82 Y130.33 E14.63597
G1 X165.18 Y130.33 E16.30953
G1 X165.18 Y149.67 E16.95224
G0 F2625 X165.68 Y150.17
;TYPE:WALL-OUTER
G1 F900 X114.32 Y150.17 E18.65904
G1 X114.32 Y129.83 E19.33497
G1 X165.68 Y129.83 E21.04177
G1 X165.68 Y150.17 E21.71771
G0 F2625 X165.43 Y150.17
G0 X165.11 Y149.6
G0 X142.69 Y134.874
G0 X141.722 Y134.472
G0 X140.698 Y134.252
G0 X139.65 Y134.221
G0 X138.615 Y134.379
G0 X137.624 Y134.72
G0 X136.804 Y135.183
G0 X135.609 Y136.136
G0 X136.07 Y136.518
G1 F900 X135.868 Y136.762 E21.72823
G1 X135.679 Y137.018 E21.73881
G1 X135.507 Y137.285 E21.74936
G1 X135.352 Y137.56 E21.75985
G1 X135.213 Y137.844 E21.77036
G1 X135.091 Y138.138 E21.78094
G1 X134.987 Y138.439 E21.79152
G1 X134.902 Y138.743 E21.80201
G1 X134.837 Y139.051 E21.81247
G1 X134.789 Y139.363 E21.82296
G1 X134.76 Y139.679 E21.83351
G1 X134.75 Y140 E21.84418
G1 X134.76 Y140.321 E21.85485
G1 X134.789 Y140.637 E21.8654
G1 X134.837 Y140.949 E21.87589
G1 X134.902 Y141.257 E21.88635
G1 X134.987 Y141.561 E21.89684
G1 X135.091 Y141.862 E21.90742
G1 X135.213 Y142.156 E21.918
G1 X135.352 Y142.44 E21.92851
G1 X135.507 Y142.715 E21.939
G1 X135.679 Y142.982 E21.94956
G1 X135.868 Y143.238 E21.96013
G1 X136.07 Y143.482 E21.97066
G1 X136.288 Y143.712 E21.98119
G1 X136.519 Y143.929 E21.99172
G1 X136.763 Y144.133 E22.00229
G1 X137.018 Y144.321 E22.01282
G1 X137.283 Y144.492 E22.0233
G1 X137.561 Y144.648 E22.03389
G1 X137.846 Y144.788 E22.04444
G1 X138.138 Y144.909 E22.05495
G1 X138.437 Y145.012 E22.06546
G1 X138.744 Y145.097 E22.07604
G1 X139.054 Y145.164 E22.08658
G1 X139.367 Y145.212 E22.09711
G1 X139.682 Y145.241 E22.10762
G1 X140 Y145.25 E22.11819
G1 X140.318 Y145.241 E22.12876
G1 X140.633 Y145.212 E22.13928
G1 X140.946 Y145.164 E22.1498
G1 X141.256 Y145.097 E22.16034
G1 X141.563 Y145.012 E22.17092
G1 X141.862 Y144.909 E22.18143
G1 X142.154 Y144.788 E22.19194
G1 X142.439 Y144.648 E22.20249
G1 X142.717 Y144.492 E22.21308
G1 X142.982 Y144.321 E22.22356
G1 X143.237 Y144.133 E22.23409
G1 X143.481 Y143.929 E22.24466
G1 X143.712 Y143.712 E22.25519
G1 X143.93 Y143.482 E22.26573
G1 X144.132 Y143.238 E22.27625
G1 X144.321 Y142.982 E22.28683
G1 X144.493 Y142.715 E22.29738
G1 X144.648 Y142.44 E22.30787
G1 X144.787 Y142.156 E22.31838
G1 X144.909 Y141.862 E22.32896
G1 X145.013 Y141.561 E22.33954
G1 X145.098 Y141.257 E22.35003
G1 X145.163 Y140.949 E22.36049
G1 X145.211 Y140.637 E22.37098
G1 X145.24 Y140.321 E22.38153
G1 X145.25 Y140 E22.3922
G1 X145.24 Y139.679 E22.40287
G1 X145.211 Y139.363 E22.41342
G1 X145.163 Y139.051 E22.42391
G1 X145.098 Y138.743 E22.43437
G1 X145.013 Y138.439 E22.44486
G1 X144.909 Y138.138 E22.45544
G1 X144.787 Y137.844 E22.46602
G1 X144.648 Y137.56 E22.47653
G1 X144.493 Y137.285 E22.48702
G1 X144.321 Y137.018 E22.49757
G1 X144.132 Y136.762 E22.50815
G1 X143.93 Y136.518 E22.51867
G1 X143.712 Y136.288 E22.52921
G1 X143.481 Y136.071 E22.53974
G1 X143.237 Y135.867 E22.55031
G1 X142.982 Y135.679 E22.56084
G1 X142.717 Y135.508 E22.57132
G1 X142.439 Y135.352 E22.58191
G1 X142.154 Y135.212 E22.59246
G1 X141.862 Y135.091 E22.60297
G1 X141.563 Y134.988 E22.61348
G1 X141.256 Y134.903 E22.62406
G1 X140.946 Y134.836 E22.6346
G1 X140.633 Y134.788 E22.64512
G1 X140.318 Y134.759 E22.65564
G1 X140 Y134.75 E22.66621
G1 X139.682 Y134.759 E22.67678
G1 X139.367 Y134.788 E22.68729
G1 X139.054 Y134.836 E22.69782
G1 X138.744 Y134.903 E22.70836
G1 X138.437 Y134.988 E22.71894
G1 X138.138 Y135.091 E22.72945
G1 X137.846 Y135.212 E22.73996
G1 X137.561 Y135.352 E22.75051
G1 X137.283 Y135.508 E22.7611
G1 X137.018 Y135.679 E22.77158
G1 X136.763 Y135.867 E22.78211
G1 X136.519 Y136.071 E22.79268
G1 X136.288 Y136.288 E22.80321
G1 X136.07 Y136.518 E22.81374
G0 F2625 X135.911 Y136.711
G0 X135.088 Y136.152
;TYPE:SKIN
G1 F900 X134.863 Y136.456 E22.82631
G1 X134.659 Y136.774 E22.83887
G1 X134.476 Y137.098 E22.85123
G1 X134.31 Y137.436 E22.86375
G1 X134.164 Y137.786 E22.87635
G1 X134.042 Y138.145 E22.88895
G1 X133.94 Y138.507 E22.90145
G1 X133.863 Y138.873 E22.91388
G1 X133.806 Y139.243 E22.92632
G1 X133.771 Y139.618 E22.93883
G1 X133.76 Y140 E22.95153
G1 X133.771 Y140.382 E22.96423
G1 X133.806 Y140.757 E22.97675
G1 X133.863 Y141.127 E22.98919
G1 X133.94 Y141.493 E23.00162
G1 X134.042 Y141.855 E23.01412
G1 X134.164 Y142.214 E23.02672
G1 X134.31 Y142.564 E23.03932
G1 X134.476 Y142.902 E23.05184
G1 X134.659 Y143.226 E23.0642
G1 X134.863 Y143.544 E23.07676
G1 X135.088 Y143.848 E23.08933
G1 X135.329 Y144.139 E23.10188
G1 X135.59 Y144.413 E23.11446
G1 X135.861 Y144.669 E23.12685
G1 X136.151 Y144.912 E23.13942
G1 X136.456 Y145.137 E23.15202
G1 X136.772 Y145.34 E23.1645
G1 X137.099 Y145.524 E23.17697
G1 X137.438 Y145.691 E23.18952
G1 X137.787 Y145.836 E23.20208
G1 X138.144 Y145.958 E23.21462
G1 X138.507 Y146.059 E23.22714
G1 X138.875 Y146.138 E23.23965
G1 X139.247 Y146.195 E23.25216
G1 X139.623 Y146.23 E23.26471
G1 X140 Y146.24 E23.27724
G1 X140.377 Y146.23 E23.28977
G1 X140.753 Y146.195 E23.30232
G1 X141.125 Y146.138 E23.31483
G1 X141.493 Y146.059 E23.32734
G1 X141.856 Y145.958 E23.33986
G1 X142.213 Y145.836 E23.35239
G1 X142.562 Y145.691 E23.36495
G1 X142.901 Y145.524 E23.37751
G1 X143.228 Y145.34 E23.38998
G1 X143.544 Y145.137 E23.40246
G1 X143.849 Y144.912 E23.41506
G1 X144.139 Y144.669 E23.42763
G1 X144.41 Y144.413 E23.44002
G1 X144.671 Y144.139 E23.4526
G1 X144.912 Y143.848 E23.46515
G1 X145.137 Y143.544 E23.47772
G1 X145.341 Y143.226 E23.49028
G1 X145.524 Y142.902 E23.50264
G1 X145.69 Y142.564 E23.51516
G1 X145.836 Y142.214 E23.52776
G1 X145.958 Y141.855 E23.54036
G1 X146.06 Y141.493 E23.55286
G1 X146.137 Y141.127 E23.56529
G1 X146.194 Y140.757 E23.57773
G1 X146.229 Y140.382 E23.59024
G1 X146.24 Y140 E23.60294
G1 X146.229 Y139.618 E23.61564
G1 X146.194 Y139.243 E23.62816
G1 X146.137 Y138.873 E23.6406
G1 X146.06 Y138.507 E23.65303
G1 X145.958 Y138.145 E23.66553
G1 X145.836 Y137.786 E23.67813
G1 X145.69 Y137.436 E23.69073
G1 X145.524 Y137.098 E23.70324
G1 X145.341 Y136.774 E23.71561
G1 X145.137 Y136.456 E23.72817
G1 X144.912 Y136.152 E23.74073
G1 X144.671 Y135.861 E23.75329
G1 X144.41 Y135.587 E23.76587
G1 X144.139 Y135.331 E23.77825
G1 X143.849 Y135.088 E23.79083
G1 X143.544 Y134.863 E23.80342
G1 X143.228 Y134.66 E23.8159
G1 X142.901 Y134.476 E23.82837
G1 X142.562 Y134.309 E23.84093
G1 X142.213 Y134.164 E23.85349
G1 X141.856 Y134.042 E23.86603
G1 X141.493 Y133.941 E23.87855
G1 X141.125 Y133.862 E23.89106
G1 X140.753 Y133.805 E23.90356
G1 X140.377 Y133.77 E23.91611
G1 X140 Y133.76 E23.92865
G1 X139.623 Y133.77 E23.94118
G1 X139.247 Y133.805 E23.95373
G1 X138.875 Y133.862 E23.96624
G1 X138.507 Y133.941 E23.97874
G1 X138.144 Y134.042 E23.99127
G1 X137.787 Y134.164 E24.0038
G1 X137.438 Y134.309 E24.01636
G1 X137.099 Y134.476 E24.02892
G1 X136.772 Y134.66 E24.04139
G1 X136.456 Y134.863 E24.05387
G1 X136.151 Y135.088 E24.06647
G1 X135.861 Y135.331 E24.07904
G1 X135.59 Y135.587 E24.09143
G1 X135.329 Y135.861 E24.104
G1 X135.088 Y136.152 E24.11656
G0 F2625 X115.31 Y130.82
G1 F900 X164.69 Y130.82 E25.75756
G1 X164.69 Y149.18 E26.36769
G1 X115.31 Y149.18 E28.00869
G1 X115.31 Y130.82 E28.61883
G0 F2625 X115.72 Y148.954
G1 F900 X115.534 Y148.768 E28.62757
G0 F2625 X115.534 Y148.061
G1 F900 X116.427 Y148.954 E28.66954
G1 X116.515 Y149.042
G0 F2625 X117.134 Y148.954
